X:1
T:Coming Back to Salem
T:Coming Back to Salem
T:Allie R. Fisher; har. by Barney E. Warren
T:Daniel S. Warner
T:PUBLIC DOMAIN
T:PUBLIC DOMAIN
T:PUBLIC DOMAIN
C:Allie R. Fisher; har. by Barney E. Warren
Z:Daniel S. Warner
Z:PUBLIC DOMAIN
%%score ( 1 2 ) ( 3 4 )
L:1/8
Q:1/4=100
M:4/4
K:C
V:1 treble nm="Soprano"
V:2 treble 
V:3 bass nm="Bass"
V:4 bass 
V:1
 C [CE] | [EG] [EG] [FA] [EG] [EG] [CE] [CD] C | [CA]3/2 [FA]/ [FA] [Fc] [EG]2 | [FA] [EG] | %4
w: 1.~We are|com- ing, hal- le- lu- jah! we are|com- ing home to God;|Je- sus|
w: 2.~While we’re|work- ing, we are fight- ing all the|might- y foes a- round;|Though in|
w: 3.~Thou art|com- ing, might- y Je- sus, in the|pow- er of Thy grace;|Now our|
w: 4.~Our foun-|da- tion strong is Je- sus, He the|up- per, crown- ing stone;|Hal- le-|
w: 5.~Oh, the|glo- ry of this tem- ple far ex-|ceeds the for- mer one!|All its|
 [EG] [CE] [Ec] [FA] [FA] [EG] [CE] C | [EG]3/2 [FA]/ [EG] [CE] [EG]2 | [CE] [EG] | %7
w: on- ly we’re be- hold- ing, who has|washed us in His blood.|We are|
w: wrath they do op- pose us we will|not de- sert the ground.|O my|
w: souls break forth in sing- ing at the|smil- ing of Thy face.|Fear of|
w: lu- jah! we a- dore Him, king up-|on His liv- ing throne.|And His|
w: stones are bound to- geth- er in love’s|dear e- ter- nal Son.|In this|
 [FA] [FA] [Ac] [FA] [FA] [EG] [CE] C | [CG]3/2 [CA]/ [CG] [CE] [EG]2 | [Gc] [Gd] | %10
w: march- ing back to Sa- lem at the|trum- pet’s joy- ful sound,|And we’re|
w: God, do Thou re- mem- ber all those|wick- ed, plot- ting crews,|Hear them|
w: sect, a mount of ter- ror, Thou hast|made an o- pen plain,|And the|
w: crim- son glo- ry stream- ing through each|crys- tal stone be- low|Tints the|
w: build- ing, what a won- der! there’s a|dwell- ing place for me;|Yes, Thy|
 [Ge] [Gd] [Gc] [GB] [Ad] [Ac] [GB] [FA] | [EG] [EG] [FA] [FB] [Ec]2 ||"^Refrain" [EG] [EG] | %13
w: build- ing God’s own tem- ple on it’s|an- cient ho- ly ground.|We are|
w: say- ing in de- ri- sion, “Now what|do these fee- ble Jews?”||
w: mist- y fogs of er- ror all have|van- ished where we reign.||
w: whole ec- sta- tic tem- ple with the|beau- ty of His glow.||
w: beau- ty, O my Sav- ior! I shall|here for- ev- er see.||
 [Ec]/ [Ec]3/2 [Ge]3/2 [Fd]/ [Ec] [GB] [FA] [EG] | [Ec]3/2 [Ec]/ [Gc] [Fd] [Ec]2 | [Ec] [Fd] | %16
w: com- ing, oh, we’re com- ing, with the|glo- ry in the soul!|Grace we’re|
w: |||
w: |||
w: |||
w: |||
 [Ge] [Fd] [Ec] [GB] [Fd] [Fc] [FB]3/2 [FA]/ | [EG] [EG] [Gc] [Ge] [Gd]2 | [CE] [EG] | %19
w: shout- ing as we’re bring- ing Christ, the|head- stone we ex- tol.|Though as|
w: |||
w: |||
w: |||
w: |||
 [FA] [FA] [Ac] [FA] [FA] [EG] [CE] C | [CG]3/2 [CA]/ [CG] [CE] [EG]2 | [Gc] [Gd] | %22
w: cap- tives long we’ve suf- fered, we do|feel the roy- al blood,|And we’re|
w: |||
w: |||
w: |||
w: |||
 [Ge] [Gd] [Gc] [GB] [Ad] [Ac] [GB] [FA] | [EG] [EG] [FA] [FB] [Ec]2 |] %24
w: ris- ing to our free- dom in the|full- ness of our God.|
w: ||
w: ||
w: ||
w: ||
V:2
 C z | z4 z2 z C | x6 | x2 | z4 z2 z C | x6 | x2 | z4 z2 z C | x6 | x2 | x8 | x6 || x2 | x8 | x6 | %15
 x2 | x8 | x6 | x2 | z4 z2 z C | x6 | x2 | x8 | x6 |] %24
V:3
 [C,E,] [C,G,] | [C,C] [C,C] [C,C] [C,C] [C,C] [C,G,] [C,F,] [C,E,] | F,3/2 [F,C]/ [F,C] [A,C] C2 | %3
 [C,C] [C,C] | [C,C] [C,G,] [C,G,] [C,C] [C,C] [C,C] [C,G,] [C,E,] | %5
 [C,C]3/2 [C,C]/ [C,C] [C,G,] [C,C]2 | [C,G,] [C,C] | %7
 [F,C] [F,C] [F,C] [F,C] [C,C] [C,C] [C,G,] [C,E,] | [C,E,]3/2 [C,F,]/ [C,E,] [C,G,] [C,C]2 | %9
 [E,C] [G,B,] | C [G,B,] [E,C] [E,C] [F,C] [F,C] [F,C] [F,C] | %11
 [G,C] [G,C] [G,,G,] [G,,G,] [C,G,]2 || [C,G,] [C,G,] | %13
 [C,G,]/ [C,G,]3/2 [C,C]3/2 [C,C]/ [C,C] [C,C] [C,C] [C,C] | [C,G,]3/2 [C,G,]/ [E,G,] G, [C,G,]2 | %15
 [C,G,] [C,G,] | [C,C] [C,C] [C,C] [E,C] [F,A,] [F,A,] [F,A,]3/2 [F,C]/ | %17
 [C,C] [C,C] [E,C] [C,C] [G,B,]2 | [C,G,] [C,C] | %19
 [F,C] [F,C] [F,C] [F,C] [C,C] [C,C] [C,G,] [C,E,] | [C,E,]3/2 [C,F,]/ [C,E,] [C,G,] [C,C]2 | %21
 [E,C] [G,B,] | C [G,B,] [E,C] [E,C] [F,C] [F,C] [F,C] [F,C] | %23
 [G,C] [G,C] [G,,G,] [G,,G,] [C,G,]2 |] %24
V:4
 x2 | x8 | F,3/2 z/ z2 C2 | x2 | x8 | x6 | x2 | x8 | x6 | x2 | C z z2 z4 | x6 || x2 | x8 | %14
 z2 z G, z2 | x2 | x8 | x6 | x2 | x8 | x6 | x2 | C z z2 z4 | x6 |] %24

